icons/jwt.svg

<svg xmlns="http://www.w3.org/2000/svg" viewBox="0 0 101 101"><path fill="#d63aff" fill-rule="evenodd" d="M57.8 27.2 57.7.3h-15l.1 26.9 7.5 10.3zm-15 46.1v27h15v-27L50.3 63zm15 0 15.8 21.8 12.1-8.8-15.8-21.8-12.1-3.9zm-15-46.1L26.9 5.4l-12.1 8.8L30.6 36l12.2 3.9zM30.6 36 5 27.7.4 41.9 26 50.3l12.1-4zm31.8 18.2 7.5 10.3 25.6 8.3 4.6-14.2-25.6-8.3zm12.1-3.9 25.6-8.4-4.6-14.2L69.9 36l-7.5 10.3zm-48.5 0L.4 58.6 5 72.8l25.6-8.3 7.5-10.3zm4.6 14.2L14.8 86.3l12.1 8.8 15.9-21.8V60.6zM69.9 36l15.8-21.8-12.1-8.8-15.8 21.8v12.7z" data-iconColor="JWT"/></svg>

<!--
  - The MIT License (MIT)
  -
  - Copyright (c) 2015-2024 Elior "Mallowigi" Boukhobza
  -
  - Permission is hereby granted, free of charge, to any person obtaining a copy
  - of this software and associated documentation files (the "Software"), to deal
  - in the Software without restriction, including without limitation the rights
  - to use, copy, modify, merge, publish, distribute, sublicense, and/or sell
  - copies of the Software, and to permit persons to whom the Software is
  - furnished to do so, subject to the following conditions:
  -
  - The above copyright notice and this permission notice shall be included in all
  - copies or substantial portions of the Software.
  -
  - THE SOFTWARE IS PROVIDED "AS IS", WITHOUT WARRANTY OF ANY KIND, EXPRESS OR
  - IMPLIED, INCLUDING BUT NOT LIMITED TO THE WARRANTIES OF MERCHANTABILITY,
  - FITNESS FOR A PARTICULAR PURPOSE AND NONINFRINGEMENT. IN NO EVENT SHALL THE
  - AUTHORS OR COPYRIGHT HOLDERS BE LIABLE FOR ANY CLAIM, DAMAGES OR OTHER
  - LIABILITY, WHETHER IN AN ACTION OF CONTRACT, TORT OR OTHERWISE, ARISING FROM,
  - OUT OF OR IN CONNECTION WITH THE SOFTWARE OR THE USE OR OTHER DEALINGS IN THE
  - SOFTWARE.
  -
  -->

<svg width="16px" height="16px" viewBox="0 0 101 101" version="1.1" xmlns="http://www.w3.org/2000/svg"
>
  <g id="Page-1" stroke="none" stroke-width="1" fill="#D63AFF" fill-rule="evenodd" data-iconColor="JWT">
    <g id="jwt_logo" transform="translate(-150.000000, -538.000000)">
      <g id="Group" transform="translate(0.000000, 413.000000)">
        <g transform="translate(150.000000, 125.000000)" id="Shape">
          <g>
            <path d="M57.8,27.2 L57.7,0.3 L42.7,0.3 L42.8,27.2 L50.3,37.5 L57.8,27.2 Z"
            ></path>
            <path d="M42.8,73.3 L42.8,100.3 L57.8,100.3 L57.8,73.3 L50.3,63 L42.8,73.3 Z"
            ></path>
            <path d="M57.8,73.3 L73.6,95.1 L85.7,86.3 L69.9,64.5 L57.8,60.6 L57.8,73.3 Z"
            ></path>
            <path d="M42.8,27.2 L26.9,5.4 L14.8,14.2 L30.6,36 L42.8,39.9 L42.8,27.2 Z"
            ></path>
            <path d="M30.6,36 L5,27.7 L0.4,41.9 L26,50.3 L38.1,46.3 L30.6,36 Z"></path>
            <path d="M62.4,54.2 L69.9,64.5 L95.5,72.8 L100.1,58.6 L74.5,50.3 L62.4,54.2 Z"
            ></path>
            <path d="M74.5,50.3 L100.1,41.9 L95.5,27.7 L69.9,36 L62.4,46.3 L74.5,50.3 Z"
            ></path>
            <path d="M26,50.3 L0.4,58.6 L5,72.8 L30.6,64.5 L38.1,54.2 L26,50.3 Z"></path>
            <path d="M30.6,64.5 L14.8,86.3 L26.9,95.1 L42.8,73.3 L42.8,60.6 L30.6,64.5 Z"
            ></path>
            <path d="M69.9,36 L85.7,14.2 L73.6,5.4 L57.8,27.2 L57.8,39.9 L69.9,36 Z"></path>
          </g>
        </g>
      </g>
    </g>
  </g>
</svg>
